X:1
T:1st Turks March
L:1/8
Q:80
M:4/4
K:G
Bc|\
dcde d2c2| BABc B2A2| GFGA GAB[cG]| A4 D2Bc|\
dcde d2c2| BABc B2g2| f2ed e2d^c| d4 d2::
d2|\
g2d2 B2AG| e2e2 d2cB| c2de dcBc| BA4 D4|\
GFGA BABc| d2ef g2c2| BAGA D2F2| G4 G2: